X: 37932
T: Space Party
R: reel
M: 4/4
K: Gdorian
K: Bb
FGBc cddc|Bggf dGGG|dcBG cBGB|FGBd cBcd|
BBcB cddc|Bggf d2/G(3GGG|dcBG cBGB|1 FGBc B3F:|2 FGBc BBdf||
g3f b3g|fbgf dfcB|gfdc BGGG|gfdB (3cccdf|
gbfg b3g|fbgf dfcB|1 gfdc B2/G(3GGG|FGBc BBdf:|2 gfdc GBdc|BGFG B3B||

